TCanvas/fit1_3.svg

<svg xmlns="http://www.w3.org/2000/svg" viewBox="0 0 1200 800" preserveAspectRatio="none" width="1200" height="800">
 <path d="M0,0H1200V800H0Z" style="fill: white;"></path>
 <g>
  <g transform="translate(120,80)">
   <path d="M0,0H960V640H0Z" style="fill: white; stroke: black; stroke-width: 1;"></path>
   <svg x="0" y="0" overflow="hidden" width="960" height="640" viewBox="0 0 960 640">
    <g>
     <path d="M0,462h10v66h9v-78h10v-50h9v-39h10v16h10v-15h9v56h10v-45h9v16h10v-58h10v23h9v-4h10v-79h9v-5h10v-22h10v81h9v-96h10v5h9v28h10v-36h10v21h9v-73h10v27h9v-11h10v-79h10v10h9v11h10v25h9v10h10v-58h10v28h9v-19h10v3h9v36h10v-1h10v-46h9v-8h10v-5h9v3h10v21h10v-10h9v-59h10v16h9v-15h10v30h10v11h9v56h10v-40h9v-81h10v43h10v28h9v15h10v32h9v-8h20v-11h19v31h9v-3h10v-14h10v-71h9v68h10v68h9v-40h10v22h10v-27h9v8h10v53h9v-51h10v68h10v-55h9v71h10v-27h9v17h10v27h10v-2h9v-38h10v32h9v-10h10v64h10v-32h9v76h10v-44h9v50h10v-35h10v85h9v-79h10v64h9v43h10v-11h10v34h9v-9h10v2h9v61h10v-25h10v30h19v82h9v-6h10" style="stroke-linejoin: miter; stroke: #00009a; stroke-width: 1; fill: none;"></path>
    </g>
    <g>
     <path d="M0,403l10,-6l9,-6l10,-7l10,-6l9,-7l10,-6l9,-7l10,-7l10,-7l9,-6l10,-7l9,-7l10,-7l10,-7l9,-7l10,-7l9,-6l10,-7l10,-8l9,-7l10,-7l9,-7l10,-7l10,-7l9,-7l10,-8l9,-7l10,-7l10,-7l9,-8l10,-7l9,-8l10,-7l10,-7l9,-8l10,-7l9,-8l10,-8l10,-7l9,-8l10,-7l9,-8l10,-8l10,-8l9,-7l10,-8l9,-8l10,-8l10,-8l9,-7l10,3l9,4l10,4l10,5l9,6l10,6l9,6l10,7l10,8l9,8l10,8l9,9l10,10l10,10l9,10l10,11l9,11l10,11l10,12l9,12l10,12l9,13l10,12l10,13l9,12l10,13l9,13l10,12l10,13l9,13l10,12l9,12l10,12l10,12l9,11l10,11l9,11l10,10l10,10l9,10l10,9l9,8l10,8l10,8l9,7l10,7l9,6l10,6l10,5l9,4" style="fill: none; stroke: red; stroke-width: 2;"></path>
    </g>
   </svg>
   <g>
    <g transform="translate(0,640)">
     <path d="M0,0h960M0,-24V0M19,-12V0M38,-12V0M58,-12V0M77,-12V0M96,-24V0M115,-12V0M134,-12V0M154,-12V0M173,-12V0M192,-24V0M211,-12V0M230,-12V0M250,-12V0M269,-12V0M288,-24V0M307,-12V0M326,-12V0M346,-12V0M365,-12V0M384,-24V0M403,-12V0M422,-12V0M442,-12V0M461,-12V0M480,-24V0M499,-12V0M518,-12V0M538,-12V0M557,-12V0M576,-24V0M595,-12V0M614,-12V0M634,-12V0M653,-12V0M672,-24V0M691,-12V0M710,-12V0M730,-12V0M749,-12V0M768,-24V0M787,-12V0M806,-12V0M826,-12V0M845,-12V0M864,-24V0M883,-12V0M902,-12V0M922,-12V0M941,-12V0M960,-24V0" style="stroke: black; stroke-width: 1;"></path>
     <g font-family="Arial" font-size="28" space="preserve" fill="black" text-anchor="middle">
      <text dy=".8em" transform="translate(0,1)">
       0
      </text>
      <text dy=".8em" transform="translate(96,1)">
       0.5
      </text>
      <text dy=".8em" transform="translate(192,1)">
       1
      </text>
      <text dy=".8em" transform="translate(288,1)">
       1.5
      </text>
      <text dy=".8em" transform="translate(384,1)">
       2
      </text>
      <text dy=".8em" transform="translate(480,1)">
       2.5
      </text>
      <text dy=".8em" transform="translate(576,1)">
       3
      </text>
      <text dy=".8em" transform="translate(672,1)">
       3.5
      </text>
      <text dy=".8em" transform="translate(768,1)">
       4
      </text>
      <text dy=".8em" transform="translate(864,1)">
       4.5
      </text>
      <text dy=".8em" transform="translate(960,1)">
       5
      </text>
     </g>
    </g>
    <g>
     <path d="M0,0v640M18,639H0M36,618H0M18,597H0M18,576H0M18,555H0M36,534H0M18,514H0M18,493H0M18,472H0M36,451H0M18,430H0M18,409H0M18,388H0M36,367H0M18,347H0M18,326H0M18,305H0M36,284H0M18,263H0M18,242H0M18,221H0M36,200H0M18,179H0M18,159H0M18,138H0M36,117H0M18,96H0M18,75H0M18,54H0M36,33H0M18,12H0" style="stroke: black; stroke-width: 1;"></path>
     <g font-family="Arial" font-size="28" space="preserve" fill="black" text-anchor="end">
      <text dy=".4em" transform="translate(-4,618)">
       3800
      </text>
      <text dy=".4em" transform="translate(-4,534)">
       4000
      </text>
      <text dy=".4em" transform="translate(-4,451)">
       4200
      </text>
      <text dy=".4em" transform="translate(-4,367)">
       4400
      </text>
      <text dy=".4em" transform="translate(-4,284)">
       4600
      </text>
      <text dy=".4em" transform="translate(-4,200)">
       4800
      </text>
      <text dy=".4em" transform="translate(-4,117)">
       5000
      </text>
      <text dy=".4em" transform="translate(-4,33)">
       5200
      </text>
     </g>
    </g>
   </g>
  </g>
  <g transform="translate(120,4)" font-family="Arial" font-size="40" space="preserve">
   <text fill="black" text-anchor="middle" dy=".8em" transform="translate(480)">
    Exponential convoluted by gaussian
   </text>
  </g>
  <g transform="translate(936,52)" font-family="Arial" font-size="22" space="preserve" fill="black">
   <path d="M0,0H240V128H0Z" style="fill: white; stroke: black; stroke-width: 1;"></path>
   <text text-anchor="middle" dy=".4em" transform="translate(120,16)">
    h_ExpGauss
   </text>
   <text text-anchor="start" dy=".4em" transform="translate(12,48)">
    Entries
   </text>
   <text text-anchor="end" dy=".4em" transform="translate(228,48)">
    1000000
   </text>
   <text text-anchor="start" dy=".4em" transform="translate(12,80)">
    Mean
   </text>
   <text text-anchor="end" dy=".4em" transform="translate(228,80)">
    2.475
   </text>
   <text text-anchor="start" dy=".4em" transform="translate(12,112)">
    Std Dev
   </text>
   <text text-anchor="end" dy=".4em" transform="translate(228,112)">
    1.399
   </text>
   <path d="M0,32h240" style="stroke: black; stroke-width: 1;"></path>
  </g>
 </g>
</svg>

<svg xmlns="http://www.w3.org/2000/svg" viewBox="0 0 1200 800" preserveAspectRatio="none" width="1200" height="800">
 <path d="M0,0H1200V800H0Z" style="fill: white;"></path>
 <g>
  <g transform="translate(120,80)">
   <path d="M0,0H960V640H0Z" style="fill: white; stroke: black; stroke-width: 1;"></path>
   <svg x="0" y="0" overflow="hidden" width="960" height="640" viewBox="0 0 960 640">
    <g>
     <path d="M0,462h10v66h9v-78h10v-50h9v-39h10v16h10v-15h9v56h10v-45h9v16h10v-58h10v23h9v-4h10v-79h9v-5h10v-22h10v81h9v-96h10v5h9v28h10v-36h10v21h9v-73h10v27h9v-11h10v-79h10v10h9v11h10v25h9v10h10v-58h10v28h9v-19h10v3h9v36h10v-1h10v-46h9v-8h10v-5h9v3h10v21h10v-10h9v-59h10v16h9v-15h10v30h10v11h9v56h10v-40h9v-81h10v43h10v28h9v15h10v32h9v-8h20v-11h19v31h9v-3h10v-14h10v-71h9v68h10v68h9v-40h10v22h10v-27h9v8h10v53h9v-51h10v68h10v-55h9v71h10v-27h9v17h10v27h10v-2h9v-38h10v32h9v-10h10v64h10v-32h9v76h10v-44h9v50h10v-35h10v85h9v-79h10v64h9v43h10v-11h10v34h9v-9h10v2h9v61h10v-25h10v30h19v82h9v-6h10" style="stroke-linejoin: miter; stroke: #00009a; stroke-width: 1; fill: none;"></path>
    </g>
    <g>
     <path d="M0,403L10,397L19,391L29,384L39,378L48,371L58,365L67,358L77,351L87,344L96,338L106,331L115,324L125,317L135,310L144,303L154,296L163,290L173,283L183,275L192,268L202,261L211,254L221,247L231,240L240,233L250,225L259,218L269,211L279,204L288,196L298,189L307,181L317,174L327,167L336,159L346,152L355,144L365,136L375,129L384,121L394,114L403,106L413,98L423,90L432,83L442,75L451,67L461,59L471,51L480,44L490,47L499,51L509,55L519,60L528,66L538,72L547,78L557,85L567,93L576,101L586,109L595,118L605,128L615,138L624,148L634,159L643,170L653,181L663,193L672,205L682,217L691,230L701,242L711,255L720,267L730,280L739,293L749,305L759,318L768,331L778,343L787,355L797,367L807,379L816,390L826,401L835,412L845,422L855,432L864,442L874,451L883,459L893,467L903,475L912,482L922,489L931,495L941,501L951,506L960,510" style="fill: none; stroke: red; stroke-width: 2;"></path>
    </g>
   </svg>
   <g>
    <g transform="translate(0,640)">
     <path d="M0,0h960M0,-24V0M19,-12V0M38,-12V0M58,-12V0M77,-12V0M96,-24V0M115,-12V0M134,-12V0M154,-12V0M173,-12V0M192,-24V0M211,-12V0M230,-12V0M250,-12V0M269,-12V0M288,-24V0M307,-12V0M326,-12V0M346,-12V0M365,-12V0M384,-24V0M403,-12V0M422,-12V0M442,-12V0M461,-12V0M480,-24V0M499,-12V0M518,-12V0M538,-12V0M557,-12V0M576,-24V0M595,-12V0M614,-12V0M634,-12V0M653,-12V0M672,-24V0M691,-12V0M710,-12V0M730,-12V0M749,-12V0M768,-24V0M787,-12V0M806,-12V0M826,-12V0M845,-12V0M864,-24V0M883,-12V0M902,-12V0M922,-12V0M941,-12V0M960,-24V0" style="stroke: black; stroke-width: 1;"></path>
     <g font-family="Arial" font-size="28" space="preserve" fill="black" text-anchor="middle">
      <text dy=".8em" transform="translate(0,1)">
       0
      </text>
      <text dy=".8em" transform="translate(96,1)">
       0.5
      </text>
      <text dy=".8em" transform="translate(192,1)">
       1
      </text>
      <text dy=".8em" transform="translate(288,1)">
       1.5
      </text>
      <text dy=".8em" transform="translate(384,1)">
       2
      </text>
      <text dy=".8em" transform="translate(480,1)">
       2.5
      </text>
      <text dy=".8em" transform="translate(576,1)">
       3
      </text>
      <text dy=".8em" transform="translate(672,1)">
       3.5
      </text>
      <text dy=".8em" transform="translate(768,1)">
       4
      </text>
      <text dy=".8em" transform="translate(864,1)">
       4.5
      </text>
      <text dy=".8em" transform="translate(960,1)">
       5
      </text>
     </g>
    </g>
    <g>
     <path d="M0,0v640M18,639H0M36,618H0M18,597H0M18,576H0M18,555H0M36,534H0M18,514H0M18,493H0M18,472H0M36,451H0M18,430H0M18,409H0M18,388H0M36,367H0M18,347H0M18,326H0M18,305H0M36,284H0M18,263H0M18,242H0M18,221H0M36,200H0M18,179H0M18,159H0M18,138H0M36,117H0M18,96H0M18,75H0M18,54H0M36,33H0M18,12H0" style="stroke: black; stroke-width: 1;"></path>
     <g font-family="Arial" font-size="28" space="preserve" fill="black" text-anchor="end">
      <text dy=".4em" transform="translate(-4,618)">
       3800
      </text>
      <text dy=".4em" transform="translate(-4,534)">
       4000
      </text>
      <text dy=".4em" transform="translate(-4,451)">
       4200
      </text>
      <text dy=".4em" transform="translate(-4,367)">
       4400
      </text>
      <text dy=".4em" transform="translate(-4,284)">
       4600
      </text>
      <text dy=".4em" transform="translate(-4,200)">
       4800
      </text>
      <text dy=".4em" transform="translate(-4,117)">
       5000
      </text>
      <text dy=".4em" transform="translate(-4,33)">
       5200
      </text>
     </g>
    </g>
   </g>
  </g>
  <g transform="translate(120,4)" font-family="Arial" font-size="40" space="preserve">
   <text fill="black" text-anchor="middle" dy=".8em" transform="translate(480)">
    Exponential convoluted by gaussian
   </text>
  </g>
  <g transform="translate(936,52)" font-family="Arial" font-size="22" space="preserve" fill="black">
   <path d="M0,0H240V128H0Z" style="fill: white; stroke: black; stroke-width: 1;"></path>
   <text text-anchor="middle" dy=".4em" transform="translate(120,16)">
    h_ExpGauss
   </text>
   <text text-anchor="start" dy=".4em" transform="translate(12,48)">
    Entries
   </text>
   <text text-anchor="end" dy=".4em" transform="translate(228,48)">
    1000000
   </text>
   <text text-anchor="start" dy=".4em" transform="translate(12,80)">
    Mean
   </text>
   <text text-anchor="end" dy=".4em" transform="translate(228,80)">
    2.475
   </text>
   <text text-anchor="start" dy=".4em" transform="translate(12,112)">
    Std Dev
   </text>
   <text text-anchor="end" dy=".4em" transform="translate(228,112)">
    1.399
   </text>
   <path d="M0,32h240" style="stroke: black; stroke-width: 1;"></path>
  </g>
 </g>
</svg>
